X:1
T:Title
%%score { 1 | ( 2 3 ) }
L:1/8
M:6/8
K:F
V:1 treble nm="Grand Piano"
V:2 bass 
V:3 bass 
V:1
 z3 z2[Q:1/4=100] F | A2 A [FA][EG][EA] | F3- F2 F | [EG]2 [EG] [EG][DF][EG] | [FA]3- [FA]2 [FA] | %5
 [Ac]2 A AG[A,F] | [DFB]3 [Fd]3 | [Fc]2 [CFA] [B,EG]F[B,CG] | [A,CF]6 | %9
 [CAc]2 [CAc] [CAc][CFA][CGB] | [CAc]2 [CAc] [CAc][CGB][CFA] | [CGB]2 [CGB] [CFA]2 [CFA] | [CEG]6 | %13
 A2 A AFG | A2 A A[B,EG][A,F] | [B,DG]2 [B,DG] [A,CF]2 [G,CE] |[M:5/8] [A,CF]-[A,CF]- [A,CF]3 |] %17
V:2
 z3 z2 [F,A,C] | [F,CF]2 [F,CF] [C,C]2 [C,C] | [F,A,]3- [F,A,]2 [F,A,] | %3
 [C,C]2 [C,C] [C,C]2 [C,C] | [F,C]3- [F,C]2 [F,C] | z3 .C3 | B,,3 [B,,B,]3 | [C,A,]2 C, z A,C, | %8
 F,6 | F,2 F, F,F,F, | F,2 F, F,F,F, | E,2 E, F,2 F, | C,6 | [F,CF]2 [F,CF] [F,CF][F,A,C][F,B,C] | %14
 [F,CF]2 [F,CF] [F,CF]C,D, | B,,2 B,, C,2 C, |[M:5/8] F,,-F,,- F,,3 |] %17
V:3
 x6 | x6 | x6 | x6 | x6 | [F,C]2 [F,CF] [F,F]-[F,B,F]F, | x6 | z3 .C,3 | x6 | x6 | x6 | x6 | x6 | %13
 x6 | x6 | x6 |[M:5/8] x5 |] %17

